X: 22020
T: Kitty's Wedding
R: hornpipe
M: 4/4
K: Dmajor
f>e|d2 B>d A2 F>A|B>AF>A D2 E>D|B,>DA,>B, D>FB>F|A>FD>F E>gf>e|
d2 B>d A2 F>A|B>AF>A D2 E>D|B,>DA,>B, D>FB>F|A>FE>F D2:|
|:f>g|a>fe>d b>af>e|d2 f>d e>dB>d|D>FB>A F>Ad>e|f2 a>f e2 f>g|
a>fe>d b>af>e|d2 f>d e>dB>d|D>FB>A F>Ad>f|e>dB>c d2:|

